X: 679
T: Xiaonigu sichuen
%%abc-version 2.0
%%abcx-abcm2ps-target-version 5.9.1 (29 Sep 2008)
%%abc-creator hum2abc beta
%%abcx-conversion-date 2013/10/02 07:52:30
%%abc-edited-by Helmut Schaffrath
%%humdrum-veritas 4057251235
%%humdrum-veritas-data 1443371698
%%continueall 1
%%barnumbers 0
L: 1/8
M: 2/4
K: F
d d/ f/ c c [I:setbarnb 1]| 
d d/ f/ c c | 
d d/ f< d c/ | 
A> FG2 | 
c G/ B/c2 | 
d d/ f/c2 | 
G G/ A/ F D | 
C4 | 
f A c c | 
G AG2 | 
G A G F | 
D> CD2 | 
c G/ B/c2 | 
d d/ f/c2 | 
D F z c | 
G2F D | 
C4 |]  



